X:1
T:The Belfast lasses
C:anon.
L:1/8
M:4/4
I:linebreak $
K:C
V:1 treble 
V:1
 .abc G2 (BG) dGBG | EAAG ^FAFD | G2 (BG) dGBG ||1 EcA^F G2 G2 :|2 eg^fa g2 g2 ||$ gddc BdBG | %6
 ^FAAG FAFD | gddc BdBG | E^FAF G2 G2 | gddc BdBG | EAAG ^FAFD |$ gdec BdBG | eg^fa g2 g2 |] %13
